static/img/list.svg

<svg viewBox="0 0 100 100" xmlns="http://www.w3.org/2000/svg"><g fill="#430632"><path d="m21.36 18.2h-13.79a1.58 1.58 0 0 0 -1.57 1.57v13.79a1.57 1.57 0 0 0 1.57 1.56h13.79a1.56 1.56 0 0 0 1.56-1.56v-13.79a1.57 1.57 0 0 0 -1.56-1.57zm-1.24 14.12h-11.32v-11.32h11.32z"/><path d="m92.44 18.2h-64.72a1.57 1.57 0 0 0 -1.56 1.57v13.79a1.56 1.56 0 0 0 1.56 1.56h64.72a1.56 1.56 0 0 0 1.56-1.56v-13.79a1.57 1.57 0 0 0 -1.56-1.57zm-1.23 2.8v11.32h-62.21v-11.32z"/><path d="m92.44 41.55h-64.72a1.56 1.56 0 0 0 -1.56 1.56v13.79a1.56 1.56 0 0 0 1.56 1.56h64.72a1.56 1.56 0 0 0 1.56-1.56v-13.79a1.56 1.56 0 0 0 -1.56-1.56zm-1.23 2.8v11.31h-62.21v-11.31z"/><path d="m92.44 64.89h-64.72a1.56 1.56 0 0 0 -1.56 1.56v13.79a1.56 1.56 0 0 0 1.56 1.56h64.72a1.56 1.56 0 0 0 1.56-1.56v-13.79a1.56 1.56 0 0 0 -1.56-1.56zm-1.23 2.8v11.31h-62.21v-11.31z"/><path d="m21.36 41.55h-13.79a1.57 1.57 0 0 0 -1.57 1.56v13.79a1.57 1.57 0 0 0 1.57 1.56h13.79a1.56 1.56 0 0 0 1.56-1.56v-13.79a1.56 1.56 0 0 0 -1.56-1.56zm-1.24 2.8v11.31h-11.32v-11.31z"/><path d="m21.36 64.89h-13.79a1.57 1.57 0 0 0 -1.57 1.56v13.79a1.57 1.57 0 0 0 1.57 1.56h13.79a1.56 1.56 0 0 0 1.56-1.56v-13.79a1.56 1.56 0 0 0 -1.56-1.56zm-1.24 2.8v11.31h-11.32v-11.31z"/></g></svg>

<svg id="Layer_1" data-name="Layer 1" xmlns="http://www.w3.org/2000/svg" viewBox="0 0 100 100"><title>list</title><path d="M21.36,18.2H7.57A1.58,1.58,0,0,0,6,19.77V33.56a1.57,1.57,0,0,0,1.57,1.56H21.36a1.56,1.56,0,0,0,1.56-1.56V19.77A1.57,1.57,0,0,0,21.36,18.2ZM20.12,32.32H8.8V21H20.12Z" fill="#430632"/><path d="M92.44,18.2H27.72a1.57,1.57,0,0,0-1.56,1.57V33.56a1.56,1.56,0,0,0,1.56,1.56H92.44A1.56,1.56,0,0,0,94,33.56V19.77A1.57,1.57,0,0,0,92.44,18.2ZM91.21,21V32.32H29V21Z" fill="#430632"/><path d="M92.44,41.55H27.72a1.56,1.56,0,0,0-1.56,1.56V56.9a1.56,1.56,0,0,0,1.56,1.56H92.44A1.56,1.56,0,0,0,94,56.9V43.11A1.56,1.56,0,0,0,92.44,41.55Zm-1.23,2.8V55.66H29V44.35Z" fill="#430632"/><path d="M92.44,64.89H27.72a1.56,1.56,0,0,0-1.56,1.56V80.24a1.56,1.56,0,0,0,1.56,1.56H92.44A1.56,1.56,0,0,0,94,80.24V66.45A1.56,1.56,0,0,0,92.44,64.89Zm-1.23,2.8V79H29V67.69Z" fill="#430632"/><path d="M21.36,41.55H7.57A1.57,1.57,0,0,0,6,43.11V56.9a1.57,1.57,0,0,0,1.57,1.56H21.36a1.56,1.56,0,0,0,1.56-1.56V43.11A1.56,1.56,0,0,0,21.36,41.55Zm-1.24,2.8V55.66H8.8V44.35Z" fill="#430632"/><path d="M21.36,64.89H7.57A1.57,1.57,0,0,0,6,66.45V80.24A1.57,1.57,0,0,0,7.57,81.8H21.36a1.56,1.56,0,0,0,1.56-1.56V66.45A1.56,1.56,0,0,0,21.36,64.89Zm-1.24,2.8V79H8.8V67.69Z" fill="#430632"/></svg>
